X:0632
M:2/4
L:1/8
Q:1/4=144
K:A
E|A>BA>B| GEEE   |A>BA>c|e2ec|fddf      |eccA      |BcdB |AGFE|
  A>BA>B| GEEE   |A>BA>c|e2ec|fddf      |eccA      |BABc |A3 ||
  A>BA>B| GEEE   |A>BA>c|e2ec|fddf      |eccA      |BAB>c|A3 |]

